app/images/icons/figma.svg

<svg fill="none" height="22" viewBox="0 0 18 22" width="18" xmlns="http://www.w3.org/2000/svg"><path d="m6.41613 18.9968c1.47171 0 2.66614-1.1944 2.66614-2.6661v-2.6661h-2.66614c-1.4717 0-2.66613 1.1944-2.66613 2.6661s1.19443 2.6661 2.66613 2.6661z" fill="#0acf83"/><path d="m3.75 10.9984c0-1.4717 1.19443-2.66612 2.66613-2.66612h2.66614v5.33222h-2.66614c-1.4717 0-2.66613-1.1944-2.66613-2.6661z" fill="#a259ff"/><path d="m3.75 5.66613c0-1.4717 1.19443-2.66613 2.66613-2.66613h2.66614v5.33227h-2.66614c-1.4717 0-2.66613-1.19443-2.66613-2.66614z" fill="#f24e1e"/><path d="m9.08228 3h2.66612c1.4717 0 2.6661 1.19443 2.6661 2.66613 0 1.47171-1.1944 2.66614-2.6661 2.66614h-2.66612z" fill="#ff7262"/><path d="m14.4145 10.9984c0 1.4717-1.1944 2.6661-2.6661 2.6661s-2.66612-1.1944-2.66612-2.6661 1.19442-2.66612 2.66612-2.66612 2.6661 1.19442 2.6661 2.66612z" fill="#1abcfe"/></svg>

<svg width="18" height="22" viewBox="0 0 18 22" fill="none" xmlns="http://www.w3.org/2000/svg">
<path d="M6.41613 18.9968C7.88784 18.9968 9.08227 17.8024 9.08227 16.3307V13.6646H6.41613C4.94443 13.6646 3.75 14.859 3.75 16.3307C3.75 17.8024 4.94443 18.9968 6.41613 18.9968Z" fill="#0ACF83"/>
<path d="M3.75 10.9984C3.75 9.5267 4.94443 8.33228 6.41613 8.33228H9.08227V13.6645H6.41613C4.94443 13.6645 3.75 12.4701 3.75 10.9984Z" fill="#A259FF"/>
<path d="M3.75 5.66613C3.75 4.19443 4.94443 3 6.41613 3H9.08227V8.33227H6.41613C4.94443 8.33227 3.75 7.13784 3.75 5.66613Z" fill="#F24E1E"/>
<path d="M9.08228 3H11.7484C13.2201 3 14.4145 4.19443 14.4145 5.66613C14.4145 7.13784 13.2201 8.33227 11.7484 8.33227H9.08228V3Z" fill="#FF7262"/>
<path d="M14.4145 10.9984C14.4145 12.4701 13.2201 13.6645 11.7484 13.6645C10.2767 13.6645 9.08228 12.4701 9.08228 10.9984C9.08228 9.5267 10.2767 8.33228 11.7484 8.33228C13.2201 8.33228 14.4145 9.5267 14.4145 10.9984Z" fill="#1ABCFE"/>
</svg>
